images/ic_fire_fighter.svg

<svg width="20" height="20" viewBox="0 0 20 20" fill="none" xmlns="http://www.w3.org/2000/svg">
<g clip-path="url(#clip0)">
<path d="M18.3771 14.7673C18.2827 14.7253 18.1868 14.6895 18.0898 14.6586L16.7036 14.0373L18.3822 13.2557C19.048 12.9587 19.5579 12.4216 19.8184 11.7426C20.0788 11.0639 20.0585 10.3246 19.7613 9.6609C19.1477 8.29117 17.5289 7.67269 16.1526 8.28199L14.7784 8.90621C14.9761 8.3582 15.0776 7.77417 15.0739 7.17456C15.0618 5.24554 13.8533 4.14128 12.8822 3.25397C11.9186 2.37346 11.328 1.78299 11.328 0.781622C11.328 0.496817 11.173 0.23455 10.9235 0.0972845C10.674 -0.0400595 10.3695 -0.0306454 10.1289 0.121699L10.0582 0.166191C9.59935 0.454238 8.38052 1.21944 7.24981 2.38147C5.75973 3.91284 5.00418 5.5271 5.00418 7.17949C5.00418 7.79652 5.11547 8.38797 5.31859 8.93496L3.84738 8.27562C2.47124 7.66628 0.852371 8.28484 0.238698 9.65453C-0.0585689 10.3182 -0.0788424 11.0574 0.181588 11.7363C0.442331 12.4158 0.952879 12.9533 1.61952 13.2502L3.32351 14.0341L1.91999 14.6556C1.81968 14.6871 1.72042 14.7239 1.62292 14.7673C0.955887 15.0644 0.444479 15.6034 0.182916 16.2851C-0.0786471 16.9668 -0.0591158 17.7096 0.237994 18.3766C0.535066 19.0436 1.07413 19.5551 1.75581 19.8166C2.07394 19.9387 2.40527 19.9995 2.73609 19.9995C3.11031 19.9995 3.48375 19.9213 3.83625 19.7662C3.85195 19.7604 3.86757 19.7543 3.88308 19.7474L10.0038 17.0372C10.0524 17.0157 10.0977 16.9897 10.1395 16.9601C10.3495 16.8991 10.5329 16.7507 10.6316 16.5364C10.8119 16.1444 10.6403 15.6805 10.2484 15.5002L2.26788 11.8287L2.25769 11.8241C1.97109 11.6972 1.75175 11.4672 1.64026 11.1766C1.52976 10.8886 1.53839 10.575 1.66456 10.2933C1.92749 9.70637 2.62288 9.44211 3.21164 9.70281L15.4735 15.1981C15.1746 15.457 14.9335 15.7804 14.7678 16.1524C14.5992 16.531 14.5202 16.9341 14.5311 17.3366L13.4801 16.8712C13.0856 16.6965 12.6242 16.8747 12.4496 17.2692C12.2749 17.6637 12.4531 18.1251 12.8476 18.2997L16.1527 19.7632C16.1735 19.7724 16.1945 19.7804 16.2155 19.7876C16.5528 19.9282 16.908 19.9996 17.264 19.9996C17.5948 19.9996 17.9262 19.9387 18.2443 19.8167C18.926 19.5551 19.465 19.0437 19.7621 18.3767C20.0592 17.7097 20.0788 16.9669 19.8172 16.2852C19.5555 15.6034 19.0441 15.0643 18.3771 14.7673ZM5.21602 14.9047L8.03341 16.2009L5.46891 17.3365C5.47985 16.934 5.40086 16.5309 5.23223 16.1522C5.06824 15.784 4.83023 15.4636 4.53547 15.2061L5.21602 14.9047ZM3.80504 16.7879C3.93234 17.0736 3.9407 17.3919 3.82863 17.684C3.71652 17.9761 3.49746 18.2071 3.21164 18.3344C2.92581 18.4616 2.60757 18.47 2.31546 18.3579C2.02335 18.2458 1.79237 18.0267 1.66515 17.741C1.53784 17.4552 1.52948 17.1369 1.64155 16.8448C1.75366 16.5527 1.97273 16.3217 2.25855 16.1945C2.26773 16.1904 2.27706 16.1868 2.28636 16.1829L2.29343 16.1989L2.45562 16.127C2.54742 16.1043 2.64097 16.0925 2.73468 16.0925C2.8764 16.0925 3.01839 16.1186 3.15468 16.1709C3.44679 16.283 3.67777 16.502 3.80504 16.7879ZM10.039 10.6635C9.48716 10.6635 9.03825 10.2167 9.03825 9.6675C9.03825 9.13742 9.39368 8.53015 9.77974 8.03468C9.99197 8.33824 10.2437 8.57761 10.4597 8.78304C10.8807 9.18347 11.0398 9.36351 11.0398 9.6675C11.0398 10.2167 10.5909 10.6635 10.039 10.6635ZM11.5363 7.65097C11.1036 7.23941 10.8778 7.0039 10.8778 6.55866C10.8778 6.25409 10.7007 5.97722 10.4242 5.84952C10.1477 5.72179 9.82216 5.7664 9.59025 5.96386C9.37915 6.14359 7.56841 7.73621 7.47954 9.53156C6.91278 8.91133 6.56641 8.08527 6.56641 7.17949C6.56641 5.47554 7.77637 3.69159 9.9981 2.08827C10.3714 3.07624 11.1332 3.77225 11.8283 4.40737C12.7273 5.22882 13.5037 5.93823 13.5115 7.18437C13.517 8.06351 13.1933 8.89445 12.5982 9.53957C12.5486 8.61433 11.9666 8.06019 11.5363 7.65097ZM14.8175 13.192L11.9501 11.907L16.7881 9.70926C17.3793 9.44933 18.073 9.71371 18.3354 10.2997C18.4616 10.5813 18.4702 10.895 18.3597 11.1829C18.2482 11.4736 18.0289 11.7036 17.7423 11.8305L14.8175 13.192ZM18.3348 17.741C18.2075 18.0267 17.9766 18.2459 17.6845 18.3579C17.3924 18.4701 17.0742 18.4617 16.7884 18.3344C16.5026 18.207 16.2834 17.9761 16.1714 17.684C16.0593 17.392 16.0677 17.0737 16.195 16.7879C16.3223 16.5021 16.5532 16.283 16.8453 16.1709C16.9816 16.1186 17.1235 16.0926 17.2653 16.0926C17.3605 16.0926 17.4555 16.1047 17.5485 16.1281L17.7034 16.1975C17.7475 16.2173 17.7927 16.232 17.838 16.2431C18.0765 16.3764 18.2593 16.5867 18.3584 16.8449C18.4705 17.1369 18.4621 17.4552 18.3348 17.741Z" fill="#3D3D3D"/>
</g>
<defs>
<clipPath id="clip0">
<rect width="20" height="20" fill="white"/>
</clipPath>
</defs>
</svg>

<svg xmlns="http://www.w3.org/2000/svg" fill="none" viewBox="0 0 20 20"><g clip-path="url(#A)"><path d="M18.377 14.767c-.094-.042-.2-.078-.287-.11l-1.386-.62 1.68-.782a2.71 2.71 0 0 0 1.436-1.513c.26-.68.24-1.418-.057-2.082-.614-1.37-2.232-1.988-3.61-1.38l-1.374.624c.198-.548.3-1.132.296-1.732-.012-1.93-1.22-3.033-2.192-3.92-.964-.88-1.554-1.47-1.554-2.472a.78.78 0 0 0-.404-.684.78.78 0 0 0-.795.024l-.07.044C9.6.454 8.38 1.22 7.25 2.38c-1.5 1.53-2.246 3.146-2.246 4.798 0 .617.11 1.208.314 1.755l-1.47-.66c-1.376-.61-2.995.01-3.61 1.38-.297.664-.318 1.403-.057 2.082A2.71 2.71 0 0 0 1.62 13.25l1.704.784-1.404.62a2.77 2.77 0 0 0-.297.112c-.667.297-1.178.836-1.44 1.518S-.06 17.7.238 18.377s.836 1.178 1.518 1.44a2.73 2.73 0 0 0 .98.183c.374 0 .748-.078 1.1-.233l.047-.02 6.12-2.7a.78.78 0 0 0 .136-.077.78.78 0 0 0 .109-1.46l-7.99-3.676a1.16 1.16 0 0 1-.617-.647c-.11-.288-.102-.602.024-.883.263-.587.958-.85 1.547-.6l12.262 5.495c-.3.26-.54.582-.706.954-.17.38-.248.782-.237 1.184l-1.05-.465a.78.78 0 1 0-.633 1.428l3.305 1.463.063.024a2.72 2.72 0 0 0 1.049.212c.33 0 .662-.06.98-.183.682-.262 1.22-.773 1.518-1.44s.317-1.4.055-2.09-.773-1.22-1.44-1.518zm-13.16.137L8.033 16.2 5.47 17.337c.01-.402-.068-.806-.237-1.184-.164-.368-.402-.69-.697-.946l.68-.3zm-1.41 1.883c.127.286.136.604.024.896s-.33.523-.617.65-.604.136-.896.024-.523-.33-.65-.617-.136-.604-.024-.896.33-.523.617-.65l.028-.012.007.016.162-.072a1.16 1.16 0 0 1 .279-.034 1.17 1.17 0 0 1 .42.078c.292.112.523.33.65.617zm6.234-6.124a1 1 0 0 1-1.001-.996c0-.53.355-1.137.74-1.633.212.304.464.543.68.748.42.4.58.58.58.884a1 1 0 0 1-1.001.996zm1.497-3.013c-.433-.412-.66-.647-.66-1.092a.78.78 0 0 0-1.288-.595c-.21.18-2.022 1.772-2.11 3.568-.567-.62-.913-1.446-.913-2.352 0-1.704 1.2-3.488 3.432-5.09.373.988 1.135 1.684 1.83 2.32.9.82 1.675 1.53 1.683 2.777a3.42 3.42 0 0 1-.913 2.355c-.05-.925-.632-1.48-1.062-1.89zm3.28 5.54l-2.867-1.285 4.838-2.198c.59-.26 1.285.004 1.547.6.126.282.135.595.024.883a1.16 1.16 0 0 1-.617.648l-2.925 1.36zm3.517 4.55c-.127.286-.358.505-.65.617s-.6.104-.896-.024-.505-.358-.617-.65-.104-.6.024-.896.358-.505.65-.617a1.17 1.17 0 0 1 .42-.078 1.16 1.16 0 0 1 .283.035l.155.07a.78.78 0 0 0 .135.046c.238.133.42.344.52.602.112.292.104.6-.024.896z" fill="#3d3d3d"/></g><defs><clipPath id="A"><path d="M0 0h20v20H0z" fill="#fff"/></clipPath></defs></svg>
